X:1
C:uJAtcz
Z:FAR Aumg
L:1/8
M:3/4
I:linebreak $
K:D
V:1 treble nm="Voice" snm="Voice"
V:1
 FA |"Bm" B3 F Bd | cA F2 FA |"Em" B3 F Be | c4 dc | B3 G Bd |$ cA F2 de | fe dc BA |26 B3 c de |: %9
"D" f3 d fa | ec A2 de |$ f3 d fa | e3 c de | fd Be cA | dB Gc AF | F2 B3 A | B6 :| %17
